src/22/actions/character-set.svg

<svg xmlns="http://www.w3.org/2000/svg" viewBox="0 0 22 22">
  <defs id="defs3051">
    <style type="text/css" id="current-color-scheme">
      .ColorScheme-Text {
        color:#5d656b;
      }
      </style>
  </defs>
 <path 
     style="fill:currentColor;fill-opacity:1;stroke:none" 
	 d="M4.5 3A1.499996 1.499996 0 0 0 3 4.5 1.499996 1.499996 0 0 0 4 5.912109V6 13 19H5V13H12V14H19V7H13V6H5V5.912109A1.499996 1.499996 0 0 0 6 4.5 1.499996 1.499996 0 0 0 4.5 3M5 7H12V12H5V7M13 8H18V13H13V8"
	 class="ColorScheme-Text"
     />
</svg>

<svg xmlns="http://www.w3.org/2000/svg" viewBox="0 0 22 22"><path d="M4.5 3A1.5 1.5 0 0 0 3 4.5a1.5 1.5 0 0 0 1 1.412V19h1v-6h7v1h7V7h-6V6H5v-.088A1.5 1.5 0 0 0 6 4.5 1.5 1.5 0 0 0 4.5 3M5 7h7v5H5V7m8 1h5v5h-5V8" fill="currentColor" color="#5d656b"/></svg>
